X: 34535
T: Ril Na Glaise
R: reel
M: 4/4
K: Dmajor
D2 FD ADFA|DEFA defa|ge e2 efed|ca a2 ba^ga|
fdde dAFd|BGGA Bdfa|Bggf e2 ed|cdec d4:|
a2 ag f2 fe|dBAF Adfa|bggf e2 de|ca a2 ba^ga|
fdde dAFd|BGGA Bdfa|fg g2 gfed|cdec d4|
agfe f2 fe|dBAF Adfa|bggf e2 de|caa^g =geAc|
dcec dAFA|BGGA Bdfa|bggf fede|cdec d4|

